public/steppie/steppie-lendo.svg

<svg xmlns="http://www.w3.org/2000/svg" width="4042" height="2843" fill="none" viewBox="0 0 4042 2843"><path fill="url(#a)" d="M3170.25 1675.64c-131.67 77.8-443.89 88.11-583.54 83.54h-76.06l-24.94 125.93v223.2c173.73-9.98 586.78-50.13 849.13-130.93 262.34-80.79 109.31-703.65 0-1004.982 395.26-42.394 630.92-524.936 180.79-503.739-450.12 21.197-643.39 150.872-508.72 399.001 107.73 198.5 153.78 621.36 163.34 807.98"/><mask id="c" width="1276" height="1642" x="2485" y="467" maskUnits="userSpaceOnUse" style="mask-type:alpha"><path fill="url(#b)" d="M3170.25 1675.64c-131.67 77.8-443.89 88.11-583.54 83.54h-76.06l-24.94 125.93v223.2c173.73-9.98 586.78-50.13 849.13-130.93 262.34-80.79 109.31-703.65 0-1004.982 395.26-42.394 630.92-524.936 180.79-503.739-450.12 21.197-643.39 150.872-508.72 399.001 107.73 198.5 153.78 621.36 163.34 807.98"/></mask><g mask="url(#c)"><path fill="#490d62" d="M3587.95 1473.64c-96.76 82.8-342.06 89.36-452.62 82.3L2889.7 780.379v-255.61l503.74-105.985 400.25 38.653 23.69 214.464-361.6 380.299c84.38 105.98 228.93 338.65 132.17 421.44"/><path fill="#260235" d="m2518.13 2178.13 234.41-441.39-294.26-69.83-54.86 391.52z"/><ellipse cx="3358.87" cy="607.596" fill="#f292c2" rx="389.34" ry="123.066" transform="rotate(-9.527 3358.87 607.596)"/><path fill="#f292c2" d="M3424.61 999.83c147.63-88.778 137.99-239.817 114.71-304.239V594.594l280.55-100.997-15.58 152.119-15.59 152.119z"/><path fill="#260235" d="M2994.09 691.011c-8.04-3.94-17.75-.617-21.69 7.422s-.62 17.749 7.42 21.689l7.14-14.556zm791.04-360.317-5.79-15.138-30.28 11.592 5.8 15.138 15.14-5.796zm-798.17 374.872-7.14 14.556c67.05 32.859 266.8 75.676 549.92 1.119l-4.13-15.675-4.13-15.675c-277.48 73.074-468.92 29.773-527.39 1.12zm538.65 0 4.13 15.675c143.99-37.92 218.52-109.954 251.33-186.938 32.46-76.152 22.9-154.414 4.06-203.609L3770 336.49l-15.14 5.796c16.49 43.074 24.89 112.443-3.61 179.307-28.14 66.033-93.47 132.403-229.77 168.298z"/></g><path fill="url(#d)" d="M3451.36 1794.66c-131.67 77.81-443.89 88.11-583.54 83.54h-76.06l-24.93 125.94v223.19c173.73-9.98 586.78-50.13 849.12-130.92 262.34-80.8 109.31-703.66 0-1004.99 395.26-42.39 630.92-524.935 180.8-503.738-450.13 21.197-643.39 150.872-508.73 399.001 107.73 198.507 153.78 621.357 163.34 807.977"/><mask id="f" width="1276" height="1641" x="2766" y="587" maskUnits="userSpaceOnUse" style="mask-type:alpha"><path fill="url(#e)" d="M3451.36 1794.66c-131.67 77.81-443.89 88.11-583.54 83.54h-76.06l-24.93 125.94v223.19c173.73-9.98 586.78-50.13 849.12-130.92 262.34-80.8 109.31-703.66 0-1004.99 395.26-42.39 630.92-524.935 180.8-503.738-450.13 21.197-643.39 150.872-508.73 399.001 107.73 198.507 153.78 621.357 163.34 807.977"/></mask><g mask="url(#f)"><path fill="#520a70" d="M3869.07 1592.67c-96.76 82.79-342.06 89.36-452.62 82.29l-245.64-775.558v-255.61l503.74-105.985 400.25 38.653 23.69 214.463-361.59 380.297c84.37 105.99 228.93 338.65 132.17 421.45"/><path fill="#260235" d="m2799.24 2297.15 234.42-441.39-294.27-69.83-54.86 391.52z"/><ellipse cx="3638.37" cy="716.993" fill="#ff97cb" rx="389.34" ry="132.827" transform="rotate(-9.527 3638.37 716.993)"/><path fill="#ff97cb" d="M3705.73 1118.85c147.63-88.78 137.98-239.814 114.71-304.236V713.617l280.55-100.998-15.59 152.12-15.59 152.119z"/><path fill="#260235" d="M3275.2 810.033c-8.03-3.939-17.74-.616-21.68 7.423s-.62 17.749 7.42 21.688l7.13-14.555zm791.05-360.316-5.8-15.138-30.27 11.592 5.79 15.138 15.14-5.796zm-798.18 374.872-7.13 14.555c67.05 32.859 266.8 75.676 549.91 1.12l-4.13-15.675-4.12-15.675c-277.49 73.074-468.93 29.773-527.4 1.119zm538.65 0 4.13 15.675c144-37.92 218.53-109.954 251.34-186.938 32.45-76.153 22.9-154.414 4.06-203.609l-15.14 5.796-15.14 5.796c16.5 43.073 24.89 112.442-3.6 179.307-28.15 66.033-93.47 132.403-229.77 168.298z"/></g><path fill="url(#g)" d="M1412.71 47.783c-19.97-165.668 376.35 145.852 689.23 231.38 11.29 2.675 22.61 5.489 33.94 8.439a620 620 0 0 0 22.47 4.569l-3.95.365c432.12 117.92 885.75 432.26 940.35 820.084 51.62 366.58-94.76 786.78-311.71 933.91 2.07 185.7-42.9 543.93-239.41 491.27-196.5-52.65-247.29-447.54-248.13-638.4-74.39 2.91-218.95-26.68-201.99-168.33-446.8-253.53-1333.911-766.581-1307.976-790.521s120.532-46.551 164.588-54.863c53.298-447.95 235.528-564.811 638.618-622.63-75.19-39.221-163.42-110.739-176.03-215.273"/><rect width="391.52" height="695.759" x="1394.59" y="425.642" fill="#f6f6f6" stroke="#260235" stroke-width="19.95" rx="195.76" transform="rotate(11.034 1394.59 425.642)"/><rect width="391.52" height="695.759" x="1945.31" y="533.034" fill="#f6f6f6" stroke="#260235" stroke-width="19.95" rx="195.76" transform="rotate(11.034 1945.31 533.034)"/><rect width="153.622" height="267.209" x="1422.71" y="709.876" fill="#260235" rx="76.811" transform="rotate(11.034 1422.71 709.876)"/><path stroke="#260235" stroke-linecap="round" stroke-width="32.419" d="M3403.98 1540.3c57.97 4.86 205.85 7.72 333.67-19.74"/><path fill="#ffb7b7" d="M1933.91 707.382c158.6 36.907 238.99 134.247 259.35 178.303L1867.83 1037.8l-1073.568 96.01L82.294 737.307l325.436-91.022c212.468 81.795 450.955 315.044 543.639 421.445 280.301-155.611 771.821-305.07 982.541-360.348"/><path fill="#c1fe00" d="M761.463 1034.69 71.119 709.691C38.039 694.117 0 718.253 0 754.815V2279.62a49.87 49.87 0 0 0 26.505 44.06l704.303 373.57a49.8 49.8 0 0 0 15.555 5.19l242.752 38.52c5.552.88 11.215.81 16.745-.19l1292.83-235.28c24.05-4.38 41.38-25.53 40.94-49.97l-28.12-1562.756c-.55-30.589-28.25-53.476-58.39-48.243L975.529 1066.35c-5.266.91-10.645.98-15.931.18l-184.29-27.64a49.7 49.7 0 0 1-13.845-4.2"/><path fill="url(#h)" d="M2544.88 1806.09v412.72l44.89-320.45 178.3-92.27c40.73 249.38 62.1 748.13-178.3 748.13s-296.34-413.96-294.26-620.94c-74.82 59.43-238.66 135.66-295.51-34.92-71.08-213.21 137.15-320.45 335.41-305.48 158.6 11.97 205.73 147.13 209.47 213.21"/><path stroke="#260235" stroke-linecap="round" stroke-width="19.95" d="m2539.89 2217.56 8.73-357.85c-1.24-47.8-8.73-143.39-56.11-192.02-49.87-51.19-127.18-101-300.5-64.84"/><path fill="#270235" d="M2791.76 2047.99c-4.98-83.79-22.03-204.49-29.92-254.37l130.92 159.61z"/><path stroke="#260235" stroke-linecap="round" stroke-width="64.838" d="M2078.51 436.837c34.64-8.774 101.48-18.63 174.26 48.75"/><path stroke="#ff7ac6" stroke-linecap="round" stroke-width="192.019" d="M2730.23 829.576c81.45 96.575 216.12 293.824 114.43 629.354"/><path stroke="#260235" stroke-linecap="round" stroke-width="64.838" d="M1541.14 364.184c34.65-8.774 101.49-18.629 174.26 48.751"/><path stroke="#260235" stroke-linecap="round" stroke-width="49.875" d="M2093.51 275.962c180.38 48.628 594.51 207.73 807.98 455.111 266.83 309.227 254.36 615.957 89.77 1058.597M758.103 1057.76l-36.16 1716.95m281.797 42.39-32.421-1741.89"/><defs><linearGradient id="a" x1="3727.6" x2="2311.15" y1="1118.85" y2="2107.06" gradientUnits="userSpaceOnUse"><stop offset=".056" stop-color="#ff1f9f"/><stop offset=".547" stop-color="#99135f"/></linearGradient><linearGradient id="b" x1="3359.77" x2="2485.71" y1="1179.38" y2="2048.37" gradientUnits="userSpaceOnUse"><stop stop-color="#ff1f9f"/><stop offset="1" stop-color="#78164e"/></linearGradient><linearGradient id="d" x1="3512.46" x2="2592.26" y1="1527.83" y2="2226.08" gradientUnits="userSpaceOnUse"><stop offset=".056" stop-color="#ff1f9f"/><stop offset=".939" stop-color="#99135f"/></linearGradient><linearGradient id="e" x1="3640.89" x2="2766.83" y1="1298.4" y2="2167.39" gradientUnits="userSpaceOnUse"><stop stop-color="#ff1f9f"/><stop offset="1" stop-color="#78164e"/></linearGradient><linearGradient id="h" x1="1915.21" x2="2793.01" y1="1783.65" y2="1915.82" gradientUnits="userSpaceOnUse"><stop stop-color="#ff1f9f"/><stop offset="1" stop-color="#ff3aaa"/></linearGradient><radialGradient id="g" cx="0" cy="0" r="1" gradientTransform="rotate(184.242 1372.315 458.178)scale(1297.82 1184.08)" gradientUnits="userSpaceOnUse"><stop stop-color="#ff73c3"/><stop offset="1" stop-color="#ff1f9f"/></radialGradient></defs></svg>

<svg width="4042" height="2843" viewBox="0 0 4042 2843" fill="none" xmlns="http://www.w3.org/2000/svg">
<path d="M3170.25 1675.64C3038.58 1753.44 2726.36 1763.75 2586.71 1759.18H2510.65L2485.71 1885.11V2108.31C2659.44 2098.33 3072.49 2058.18 3334.84 1977.38C3597.18 1896.59 3444.15 1273.73 3334.84 972.398C3730.1 930.004 3965.76 447.462 3515.63 468.659C3065.51 489.856 2872.24 619.531 3006.91 867.66C3114.64 1066.16 3160.69 1489.02 3170.25 1675.64Z" fill="url(#paint0_linear_577_20)"/>
<mask id="mask0_577_20" style="mask-type:alpha" maskUnits="userSpaceOnUse" x="2485" y="467" width="1276" height="1642">
<path d="M3170.25 1675.64C3038.58 1753.44 2726.36 1763.75 2586.71 1759.18H2510.65L2485.71 1885.11V2108.31C2659.44 2098.33 3072.49 2058.18 3334.84 1977.38C3597.18 1896.59 3444.15 1273.73 3334.84 972.398C3730.1 930.004 3965.76 447.462 3515.63 468.659C3065.51 489.856 2872.24 619.531 3006.91 867.66C3114.64 1066.16 3160.69 1489.02 3170.25 1675.64Z" fill="url(#paint1_linear_577_20)"/>
</mask>
<g mask="url(#mask0_577_20)">
<path d="M3587.95 1473.64C3491.19 1556.44 3245.89 1563 3135.33 1555.94L2889.7 780.379V524.769L3393.44 418.784L3793.69 457.437L3817.38 671.901L3455.78 1052.2C3540.16 1158.18 3684.71 1390.85 3587.95 1473.64Z" fill="#490D62"/>
<path d="M2518.13 2178.13L2752.54 1736.74L2458.28 1666.91L2403.42 2058.43L2518.13 2178.13Z" fill="#260235"/>
<ellipse cx="3358.87" cy="607.596" rx="389.34" ry="123.066" transform="rotate(-9.52697 3358.87 607.596)" fill="#F292C2"/>
<path d="M3424.61 999.83C3572.24 911.052 3562.6 760.013 3539.32 695.591V594.594L3819.87 493.597L3804.29 645.716L3788.7 797.835L3424.61 999.83Z" fill="#F292C2"/>
<path d="M2994.09 691.011C2986.05 687.071 2976.34 690.394 2972.4 698.433C2968.46 706.472 2971.78 716.182 2979.82 720.122L2986.96 705.566L2994.09 691.011ZM3785.13 330.694L3779.34 315.556L3749.06 327.148L3754.86 342.286L3770 336.49L3785.13 330.694ZM2986.96 705.566L2979.82 720.122C3046.87 752.981 3246.62 795.798 3529.74 721.241L3525.61 705.566L3521.48 689.891C3244 762.965 3052.56 719.664 2994.09 691.011L2986.96 705.566ZM3525.61 705.566L3529.74 721.241C3673.73 683.321 3748.26 611.287 3781.07 534.303C3813.53 458.151 3803.97 379.889 3785.13 330.694L3770 336.49L3754.86 342.286C3771.35 385.36 3779.75 454.729 3751.25 521.593C3723.11 587.626 3657.78 653.996 3521.48 689.891L3525.61 705.566Z" fill="#260235"/>
</g>
<path d="M3451.36 1794.66C3319.69 1872.47 3007.47 1882.77 2867.82 1878.2H2791.76L2766.83 2004.14V2227.33C2940.56 2217.35 3353.61 2177.2 3615.95 2096.41C3878.29 2015.61 3725.26 1392.75 3615.95 1091.42C4011.21 1049.03 4246.87 566.485 3796.75 587.682C3346.62 608.879 3153.36 738.554 3288.02 986.683C3395.75 1185.19 3441.8 1608.04 3451.36 1794.66Z" fill="url(#paint2_linear_577_20)"/>
<mask id="mask1_577_20" style="mask-type:alpha" maskUnits="userSpaceOnUse" x="2766" y="587" width="1276" height="1641">
<path d="M3451.36 1794.66C3319.69 1872.47 3007.47 1882.77 2867.82 1878.2H2791.76L2766.83 2004.14V2227.33C2940.56 2217.35 3353.61 2177.2 3615.95 2096.41C3878.29 2015.61 3725.26 1392.75 3615.95 1091.42C4011.21 1049.03 4246.87 566.485 3796.75 587.682C3346.62 608.879 3153.36 738.554 3288.02 986.683C3395.75 1185.19 3441.8 1608.04 3451.36 1794.66Z" fill="url(#paint3_linear_577_20)"/>
</mask>
<g mask="url(#mask1_577_20)">
<path d="M3869.07 1592.67C3772.31 1675.46 3527.01 1682.03 3416.45 1674.96L3170.81 899.402V643.792L3674.55 537.807L4074.8 576.46L4098.49 790.923L3736.9 1171.22C3821.27 1277.21 3965.83 1509.87 3869.07 1592.67Z" fill="#520A70"/>
<path d="M2799.24 2297.15L3033.66 1855.76L2739.39 1785.93L2684.53 2177.45L2799.24 2297.15Z" fill="#260235"/>
<ellipse cx="3638.37" cy="716.993" rx="389.34" ry="132.827" transform="rotate(-9.52697 3638.37 716.993)" fill="#FF97CB"/>
<path d="M3705.73 1118.85C3853.36 1030.07 3843.71 879.036 3820.44 814.614V713.617L4100.99 612.619L4085.4 764.739L4069.81 916.858L3705.73 1118.85Z" fill="#FF97CB"/>
<path d="M3275.2 810.033C3267.17 806.094 3257.46 809.417 3253.52 817.456C3249.58 825.495 3252.9 835.205 3260.94 839.144L3268.07 824.589L3275.2 810.033ZM4066.25 449.717L4060.45 434.579L4030.18 446.171L4035.97 461.309L4051.11 455.513L4066.25 449.717ZM3268.07 824.589L3260.94 839.144C3327.99 872.003 3527.74 914.82 3810.85 840.264L3806.72 824.589L3802.6 808.914C3525.11 881.988 3333.67 838.687 3275.2 810.033L3268.07 824.589ZM3806.72 824.589L3810.85 840.264C3954.85 802.344 4029.38 730.31 4062.19 653.326C4094.64 577.173 4085.09 498.912 4066.25 449.717L4051.11 455.513L4035.97 461.309C4052.47 504.382 4060.86 573.751 4032.37 640.616C4004.22 706.649 3938.9 773.019 3802.6 808.914L3806.72 824.589Z" fill="#260235"/>
</g>
<path d="M1412.71 47.7825C1392.74 -117.885 1789.06 193.635 2101.94 279.163C2113.23 281.838 2124.55 284.652 2135.88 287.602C2143.44 289.281 2150.93 290.809 2158.35 292.171L2154.4 292.536C2586.52 410.456 3040.15 724.796 3094.75 1112.62C3146.37 1479.2 2999.99 1899.4 2783.04 2046.53C2785.11 2232.23 2740.14 2590.46 2543.63 2537.8C2347.13 2485.15 2296.34 2090.26 2295.5 1899.4C2221.11 1902.31 2076.55 1872.72 2093.51 1731.07C1646.71 1477.54 759.599 964.489 785.534 940.549C811.469 916.609 906.066 893.998 950.122 885.686C1003.42 437.736 1185.65 320.875 1588.74 263.056C1513.55 223.835 1425.32 152.317 1412.71 47.7825Z" fill="url(#paint4_radial_577_20)"/>
<rect x="1394.59" y="425.642" width="391.52" height="695.759" rx="195.76" transform="rotate(11.0343 1394.59 425.642)" fill="#F6F6F6" stroke="#260235" stroke-width="19.9501"/>
<rect x="1945.31" y="533.034" width="391.52" height="695.759" rx="195.76" transform="rotate(11.0343 1945.31 533.034)" fill="#F6F6F6" stroke="#260235" stroke-width="19.9501"/>
<rect x="1422.71" y="709.876" width="153.622" height="267.209" rx="76.811" transform="rotate(11.0343 1422.71 709.876)" fill="#260235"/>
<path d="M3403.98 1540.3C3461.95 1545.16 3609.83 1548.02 3737.65 1520.56" stroke="#260235" stroke-width="32.4189" stroke-linecap="round"/>
<path d="M1933.91 707.382C2092.51 744.289 2172.9 841.629 2193.26 885.685L1867.83 1037.8L794.262 1133.81L82.2942 737.307L407.73 646.285C620.198 728.08 858.685 961.329 951.369 1067.73C1231.67 912.119 1723.19 762.66 1933.91 707.382Z" fill="#FFB7B7"/>
<path d="M761.463 1034.69L71.1189 709.691C38.0388 694.117 0 718.253 0 754.815V2279.62C0 2298.08 10.1967 2315.03 26.505 2323.68L730.808 2697.25C735.671 2699.83 740.927 2701.58 746.363 2702.44L989.115 2740.96C994.667 2741.84 1000.33 2741.77 1005.86 2740.77L2298.69 2505.49C2322.74 2501.11 2340.07 2479.96 2339.63 2455.52L2311.51 892.764C2310.96 862.175 2283.26 839.288 2253.12 844.521L975.529 1066.35C970.263 1067.26 964.884 1067.33 959.598 1066.53L775.308 1038.89C770.513 1038.17 765.849 1036.76 761.463 1034.69Z" fill="#C1FE00"/>
<path d="M2544.88 1806.09V2218.81L2589.77 1898.36L2768.07 1806.09C2808.8 2055.47 2830.17 2554.22 2589.77 2554.22C2349.37 2554.22 2293.43 2140.26 2295.51 1933.28C2220.69 1992.71 2056.85 2068.94 2000 1898.36C1928.92 1685.15 2137.15 1577.91 2335.41 1592.88C2494.01 1604.85 2541.14 1740.01 2544.88 1806.09Z" fill="url(#paint5_linear_577_20)"/>
<path d="M2539.89 2217.56L2548.62 1859.71C2547.38 1811.91 2539.89 1716.32 2492.51 1667.69C2442.64 1616.5 2365.33 1566.69 2192.01 1602.85" stroke="#260235" stroke-width="19.9501" stroke-linecap="round"/>
<path d="M2791.76 2047.99C2786.78 1964.2 2769.73 1843.5 2761.84 1793.62L2892.76 1953.23L2791.76 2047.99Z" fill="#270235"/>
<path d="M2078.51 436.837C2113.15 428.063 2179.99 418.207 2252.77 485.587" stroke="#260235" stroke-width="64.8377" stroke-linecap="round"/>
<path d="M2730.23 829.576C2811.68 926.151 2946.35 1123.4 2844.66 1458.93" stroke="#FF7AC6" stroke-width="192.019" stroke-linecap="round"/>
<path d="M1541.14 364.184C1575.79 355.41 1642.63 345.555 1715.4 412.935" stroke="#260235" stroke-width="64.8377" stroke-linecap="round"/>
<path d="M2093.51 275.962C2273.89 324.59 2688.02 483.692 2901.49 731.073C3168.32 1040.3 3155.85 1347.03 2991.26 1789.67" stroke="#260235" stroke-width="49.8752" stroke-linecap="round"/>
<path d="M758.103 1057.76L721.943 2774.71M1003.74 2817.1L971.319 1075.21" stroke="#260235" stroke-width="49.8752" stroke-linecap="round"/>
<defs>
<linearGradient id="paint0_linear_577_20" x1="3727.6" y1="1118.85" x2="2311.15" y2="2107.06" gradientUnits="userSpaceOnUse">
<stop offset="0.0557305" stop-color="#FF1F9F"/>
<stop offset="0.546616" stop-color="#99135F"/>
</linearGradient>
<linearGradient id="paint1_linear_577_20" x1="3359.77" y1="1179.38" x2="2485.71" y2="2048.37" gradientUnits="userSpaceOnUse">
<stop stop-color="#FF1F9F"/>
<stop offset="1" stop-color="#78164E"/>
</linearGradient>
<linearGradient id="paint2_linear_577_20" x1="3512.46" y1="1527.83" x2="2592.26" y2="2226.08" gradientUnits="userSpaceOnUse">
<stop offset="0.0557305" stop-color="#FF1F9F"/>
<stop offset="0.938894" stop-color="#99135F"/>
</linearGradient>
<linearGradient id="paint3_linear_577_20" x1="3640.89" y1="1298.4" x2="2766.83" y2="2167.39" gradientUnits="userSpaceOnUse">
<stop stop-color="#FF1F9F"/>
<stop offset="1" stop-color="#78164E"/>
</linearGradient>
<radialGradient id="paint4_radial_577_20" cx="0" cy="0" r="1" gradientUnits="userSpaceOnUse" gradientTransform="translate(2706.98 1016.61) rotate(-175.758) scale(1297.82 1184.08)">
<stop stop-color="#FF73C3"/>
<stop offset="1" stop-color="#FF1F9F"/>
</radialGradient>
<linearGradient id="paint5_linear_577_20" x1="1915.21" y1="1783.65" x2="2793.01" y2="1915.82" gradientUnits="userSpaceOnUse">
<stop stop-color="#FF1F9F"/>
<stop offset="1" stop-color="#FF3AAA"/>
</linearGradient>
</defs>
</svg>
